X: 13
I: linebreak $
T: Road to the Isles
T: Scotland the Brave
C: Traditional
C: 
P: 
N: 
K: D major
M: 4/4
L: 1/8
P: A
 |: "D"D4 D3E | "D"F2D2 F2A2 | "D"d4 d3c | "D"d2A2 F2D2 | "G"G4 B3G | "D"F2A2 F2D2 | 
"E7"E4 A3B | "A7"A3B AGFE | "D"D4 D3E | "D"F2D2 F2A2 | "D"d4 d3c | "D"d2A2 F2D2 | 
"G"G4 B3G | "D"F2A2 F2D2 | "A7"E4 D3E | "D"D2D2 F2A2 | 
P: B
"D"d4 d3c | "D"d2A2 F2D2 | 
"D"d4 d3c | "D"d2A2 F2D2 | "G"G4 B3G | "D"F2A2 F2D2 | "E7"E4 A3B | "A7"A3B AGFE | 
"D"D4 D3E | "D"F2D2 F2A2 | "D"d4 d3c | "D"d2A2 F2D2 | "G"G4 B3G | "D"F2A2 F2D2 | 
"A7"E4 D3E | "D"D8 :| 

